X:283
T:Air Allegro. TLY.029
M:3/8
L:1/16
Q:60
S:Wm.Tildesley,Swinton,Lancs.1860s.
R:Air
O:England.
A:Lancashire.
N:There is a bar 9 in the B part which I have assumed is an error
N:rewritten in the next bar. TT
H:1860.
Z:vmp.Taz Tarry.
K:D
D2F2A2|dcdede|fagfed|cdcBAG|FDGDAD|!
BDADGD|FDGDAD|BDADGD|FAd2c2|d6:|!
|:fagfed|egfedc|dfedcB|cAdAeA|fAeAdA|!
cAdAeA|fAeAdA|cea2^g2|a6|afdafd|bgebge|!
afdafd|bgebge|bagfed|cdcBAG|FDGDAD|!
BDADGD|FDGDAD|BDADGD|FAd2c2|d6:|]
